fs/table_move_left_28_filled.svg

<svg viewBox="0 0 28 28" fill="none" xmlns="http://www.w3.org/2000/svg" height="1em" width="1em">
  <path d="M4.5 3.75C4.5 3.33579 4.16421 3 3.75 3C3.33579 3 3 3.33579 3 3.75V24.25C3 24.6642 3.33579 25 3.75 25C4.16421 25 4.5 24.6642 4.5 24.25V3.75ZM17 25H12C11.4477 25 11 24.5523 11 24V18.5L17 18.5V25ZM21.25 25H18.5V18.5H25V21.25C25 23.3211 23.3211 25 21.25 25ZM25 11V17H18.5V11L25 11ZM25 6.75V9.5L18.5 9.5V3H21.25C23.3211 3 25 4.67893 25 6.75ZM11 4C11 3.44772 11.4477 3 12 3H17V9.5H11V4ZM17 17V11H11V12.25H12C12.9665 12.25 13.75 13.0335 13.75 14C13.75 14.9665 12.9665 15.75 12 15.75L11 15.75V17L17 17ZM9.31056 12.2483L8.42014 13.25H12C12.4142 13.25 12.75 13.5858 12.75 14C12.75 14.4142 12.4142 14.75 12 14.75L8.42013 14.75L9.31056 15.7517C9.58575 16.0613 9.55786 16.5354 9.24827 16.8106C8.93869 17.0858 8.46463 17.0579 8.18944 16.7483L6.18944 14.4983C5.93685 14.2141 5.93685 13.7859 6.18944 13.5017L8.18944 11.2517C8.46463 10.9421 8.93869 10.9143 9.24827 11.1895C9.55786 11.4646 9.58575 11.9387 9.31056 12.2483Z" fill="#212121"/>
</svg>

<svg viewBox="0 0 28 28" fill="none" xmlns="http://www.w3.org/2000/svg" height="1em" width="1em">
  <path d="M4.5 3.75a.75.75 0 0 0-1.5 0v20.5a.75.75 0 0 0 1.5 0V3.75ZM17 25h-5a1 1 0 0 1-1-1v-5.5h6V25Zm4.25 0H18.5v-6.5H25v2.75A3.75 3.75 0 0 1 21.25 25ZM25 11v6h-6.5v-6H25Zm0-4.25V9.5h-6.5V3h2.75A3.75 3.75 0 0 1 25 6.75ZM11 4a1 1 0 0 1 1-1h5v6.5h-6V4Zm6 13v-6h-6v1.25h1a1.75 1.75 0 1 1 0 3.5h-1V17h6Zm-7.69-4.752-.89 1.002H12a.75.75 0 0 1 0 1.5H8.42l.89 1.002a.75.75 0 0 1-1.12.996l-2-2.25a.75.75 0 0 1 0-.996l2-2.25a.75.75 0 0 1 1.12.996Z" fill="#212121"/>
</svg>
